X: 404
T: Posla Rumena
O: Serbia
F: http://www.youtube.com/watch?v=hljyjm-W8aM
M: 2/4
L: 1/8
Q: 1/4=144
K: Dm
%%MIDI program 21 Accordian
%%MIDI bassprog 24 Acoustic Guitar
%%MIDI chordprog 24 Acoustic Guitar
"F"C2A2|A4|cB AG|GF GA|"G7"F3G|"C"E2C2:|"C"G2 GA|"G7"F3G|"C"E2C2|
"D7"FE DC|"G"D4|"C"G2 G2|"F"cB AG|"G7"F3G|"C"E2C2|"D7"FE DC|"G"D4|D2D2|
W:
W: http://www.folkloretanznoten.de/



